common.blocks/social-icon/_clear/social-icon_clear_vk-primary.svg

<svg xmlns="http://www.w3.org/2000/svg" width="24" height="24" viewBox="0 0 24 24" xmlns:xlink="http://www.w3.org/1999/xlink">
  <defs>
    <path id="a" d="M8.6758485,8.20555888 C8.87481512,8.23055992 9.32483387,8.32327212 9.56338547,8.64307711 C9.87173165,9.05455258 9.86131455,9.97854941 9.86131455,9.97854941 C9.86131455,9.97854941 10.0384053,12.5244888 9.44671394,12.840127 C9.04253044,13.0578444 8.48729897,12.6151176 7.29141582,10.5889915 C6.67993201,9.55248999 6.21949616,8.40556721 6.21949616,8.40556721 C6.21949616,8.40556721 6.1299091,8.19201665 5.97052746,8.07638683 C5.7778111,7.93783939 5.50800819,7.89512928 5.50800819,7.89512928 L2.65163919,7.91283835 C2.65163919,7.91283835 2.22141293,7.92533887 2.06515643,8.10763813 C1.92556728,8.27014491 2.05369761,8.60765897 2.05369761,8.60765897 C2.05369761,8.60765897 4.29024912,13.745373 6.82472971,16.3350642 C9.14774316,18.7091215 11.785353,18.552865 11.785353,18.552865 L12.9801945,18.552865 C12.9801945,18.552865 13.3416679,18.5143217 13.5260506,18.3184802 C13.6958493,18.1403478 13.689599,17.8028337 13.689599,17.8028337 C13.689599,17.8028337 13.6677231,16.2298515 14.4125458,15.9975502 C15.1459097,15.768374 16.0876156,17.5184469 17.0876573,18.1924333 C17.8428971,18.7007878 18.4158376,18.5893248 18.4158376,18.5893248 L21.0878239,18.552865 C21.0878239,18.552865 22.4847571,18.4684864 21.8211878,17.3903165 C21.7670189,17.3017712 21.4357551,16.5923666 19.8356884,15.1350142 C18.1606186,13.6078673 18.385628,13.8557943 20.4023787,11.216101 C21.6315966,9.60874234 22.122242,8.62745146 21.9691106,8.2076423 C21.8232712,7.80554222 20.9190669,7.91283835 20.9190669,7.91283835 L17.9116499,7.93158913 C17.9116499,7.93158913 17.688724,7.90137954 17.5241338,7.99825858 C17.3626687,8.0940959 17.257456,8.31493844 17.257456,8.31493844 C17.257456,8.31493844 16.7824362,9.55874026 16.1469931,10.6171177 C14.8073539,12.8484606 14.2729567,12.9672156 14.0541976,12.8286681 C13.5437596,12.5046963 13.67189,11.5296557 13.67189,10.8379602 C13.67189,8.67432841 14.0062789,7.77220749 13.0208212,7.53990615 C12.6937242,7.46177789 12.4541309,7.41177581 11.6176377,7.40240042 C11.47284,7.40135871 11.3311675,7.400317 11.1936617,7.400317 C10.3071665,7.400317 9.5665106,7.43886027 9.1217004,7.65241084 C8.7800195,7.81700103 8.51542515,8.18368297 8.6758485,8.20555888 Z"/>
  </defs>
  <g fill="none" fill-rule="evenodd">
    <path fill="#000000" d="M29.5815322,35.5434016 C29.5815322,35.5434016 29.92805,35.5056082 30.1055348,35.3184847 C30.2679943,35.1470317 30.2623599,34.8234832 30.2623599,34.8234832 C30.2623599,34.8234832 30.2407612,33.3126685 30.9553956,33.0895952 C31.6597001,32.870209 32.5640271,34.5506332 33.5237595,35.1968084 C34.2487236,35.6853574 34.7990202,35.5784297 34.7990202,35.5784297 L37.3636278,35.5434016 C37.3636278,35.5434016 38.7046236,35.4622841 38.0688714,34.4271133 C38.0162833,34.3423085 37.6979377,33.6611053 36.1625538,32.2618273 C34.5539222,30.7971021 34.769909,31.0340022 36.7062769,28.5 C37.8857522,26.9569226 38.3571667,26.0148527 38.2097323,25.6120302 C38.0698105,25.2267217 37.2021073,25.3290405 37.2021073,25.3290405 L34.3153978,25.3465545 C34.3153978,25.3465545 34.1012892,25.317979 33.9425859,25.4110798 C33.7876389,25.5023371 33.6871581,25.7152707 33.6871581,25.7152707 C33.6871581,25.7152707 33.2307688,26.9089895 32.6213106,27.9248027 C31.33572,30.0670439 30.8220472,30.1804242 30.611695,30.0476863 C30.1224381,29.7370429 30.2445175,28.8014255 30.2445175,28.1368145 C30.2445175,26.0600204 30.5656804,25.1944591 29.6200342,24.970464 C29.3063839,24.8957989 29.075372,24.846944 28.2724648,24.8386479 C27.242302,24.8285082 26.3708426,24.8423351 25.8768903,25.0792352 C25.5482149,25.2368614 25.2946652,25.5889854 25.4496122,25.6092648 C25.640244,25.6341532 26.0722174,25.7235668 26.3013512,26.0296013 C26.5971591,26.4250495 26.5868293,27.311812 26.5868293,27.311812 C26.5868293,27.311812 26.7568014,29.7564005 26.1896015,30.0596696 C25.8008254,30.2679943 25.2674321,29.8430488 24.1208243,27.8989926 C23.5339039,26.9034588 23.0906616,25.8028408 23.0906616,25.8028408 C23.0906616,25.8028408 23.0052059,25.5972815 22.8521371,25.4866667 C22.6671398,25.353007 22.4088948,25.3115265 22.4088948,25.3115265 L19.6658633,25.3290405 C19.6658633,25.3290405 19.2536104,25.340102 19.1024197,25.516164 C18.9681323,25.6719466 19.0920899,25.9954951 19.0920899,25.9954951 C19.0920899,25.9954951 21.2397492,30.9279963 23.6719476,33.4140655 C25.9022453,35.6927317 28.4339853,35.5434016 28.4339853,35.5434016 L29.5815322,35.5434016 Z"/>
    <use fill="#000000" xlink:href="#a"/>
  </g>
</svg>

<svg xmlns="http://www.w3.org/2000/svg" width="24" height="24" xmlns:xlink="http://www.w3.org/1999/xlink"><defs><path id="a" d="M8.676 8.206c.199.025.649.117.887.437.309.412.298 1.336.298 1.336s.177 2.545-.414 2.861c-.404.218-.96-.225-2.156-2.251C6.68 9.552 6.22 8.406 6.22 8.406s-.09-.214-.248-.33a1.247 1.247 0 0 0-.463-.18l-2.856.017s-.43.012-.587.195c-.14.162-.011.5-.011.5s2.236 5.137 4.77 7.727c2.324 2.374 4.961 2.218 4.961 2.218h1.195s.362-.039.546-.235c.17-.178.164-.515.164-.515s-.022-1.573.723-1.805c.733-.23 1.675 1.52 2.675 2.194.755.509 1.328.397 1.328.397l2.672-.036s1.397-.085.733-1.163c-.054-.088-.385-.798-1.985-2.255-1.675-1.527-1.45-1.28.566-3.919 1.23-1.607 1.72-2.589 1.567-3.008-.146-.402-1.05-.295-1.05-.295l-3.007.019s-.223-.03-.388.066c-.161.096-.267.317-.267.317s-.475 1.244-1.11 2.302c-1.34 2.231-1.874 2.35-2.093 2.212-.51-.324-.382-1.3-.382-1.991 0-2.164.334-3.066-.651-3.298-.327-.078-.567-.128-1.403-.138l-.424-.002c-.887 0-1.627.039-2.072.252-.342.165-.607.532-.446.554z"/></defs><g fill-rule="evenodd"><path d="M29.582 35.543s.346-.037.524-.225c.162-.171.156-.495.156-.495s-.021-1.51.693-1.733c.705-.22 1.609 1.46 2.569 2.107.725.488 1.275.381 1.275.381l2.565-.035s1.34-.08.705-1.116c-.053-.085-.371-.766-1.906-2.165-1.61-1.465-1.393-1.228.543-3.762 1.18-1.543 1.651-2.485 1.504-2.888-.14-.385-1.008-.283-1.008-.283l-2.887.018s-.214-.029-.372.064c-.155.091-.256.304-.256.304s-.456 1.194-1.066 2.21c-1.285 2.142-1.799 2.255-2.01 2.123-.489-.311-.366-1.247-.366-1.911 0-2.077.32-2.943-.625-3.167-.314-.074-.545-.123-1.348-.131-1.03-.01-1.901.003-2.395.24-.329.158-.582.51-.427.53.19.025.622.115.851.42.296.396.286 1.283.286 1.283s.17 2.444-.397 2.748c-.39.208-.923-.217-2.07-2.161-.586-.996-1.03-2.096-1.03-2.096s-.085-.206-.238-.316c-.185-.134-.443-.175-.443-.175l-2.743.017s-.412.011-.564.187c-.134.156-.01.48-.01.48s2.148 4.932 4.58 7.418c2.23 2.279 4.762 2.13 4.762 2.13h1.148z"/><use xlink:href="#a"/></g></svg>
